X:874
T:Bonnie Wee Jeanie McColl #1
C:Joe Buchanan's Scottish Tome - Page 434.1
I:434 1
C:Boston two step
R:Two-step
Z:Carl Allison
L:1/8
M:6/8
K:C
E | "C"C2 C "C"E2 G | "C"ccc "C"c2 c | "C"ccc "C7"cG^G | "F"(A3 A2) "F"C |
"G7"B,2 B, "G7"B,DF | "G7"B2 B "G7"BBB | "G7"BBB "G7"A2 ^G | "C"(G3 G2) "G7"G |
"C"C2 C "C"E2 G | "C"c2 c "C"c2 c | "C"c2 G "C"^F2 G | "F"(A3 A3) |
"C7"G3 B2 "G7"c | "Dm"d2 d2 "Dm7"B2 | "G7"GGG "G7"GAB | "C"(c3 c3) |]
